X: 8051
T: Connie The Soldier
R: jig
M: 6/8
K: Dmajor
|:EAA ABd|cAG E2 D|EFG EFG|EAF GED|
EAA ABd|cAG Ecd|cBc ABG|1 FDD DEE:|2 FDD D2 e||
|:fed dcd|fed d2 e|fed efd|cAA A2 e|
fga efg|fed fed|cBc ABG|1 FDD D2 e:|2 FDD DEE||
|:EAA A (3B/c/d|cAG E2 D|EFG EFG|EAF GED|
EAA A (3B/c/d|cAG Ecd|cBc ABG|FDD D3:|
|:fdd dcd|fdd d2 e|fdd e2 d|cAA A2 e|
fga efg|fed fed|cBc ABG|FDD D3:|

